;START_OF_HEADER
;HEADER_VERSION:0.1
;FLAVOR:Griffin
;GENERATOR.NAME:Cura_SteamEngine
;GENERATOR.VERSION:5.0.0
;GENERATOR.BUILD_DATE:2022-05-17
;TARGET_MACHINE.NAME:Ultimaker S5
;EXTRUDER_TRAIN.0.INITIAL_TEMPERATURE:200
;EXTRUDER_TRAIN.0.MATERIAL.VOLUME_USED:141
;EXTRUDER_TRAIN.0.MATERIAL.GUID:506c9f0d-e3aa-4bd4-b2d2-23e2425b1aa9
;EXTRUDER_TRAIN.0.NOZZLE.DIAMETER:0.4
;EXTRUDER_TRAIN.0.NOZZLE.NAME:AA 0.4
;BUILD_PLATE.TYPE:glass
;BUILD_PLATE.INITIAL_TEMPERATURE:60
;BUILD_VOLUME.TEMPERATURE:28
;PRINT.TIME:191
;PRINT.GROUPS:1
;PRINT.SIZE.MIN.X:148.275
;PRINT.SIZE.MIN.Y:109.035
;PRINT.SIZE.MIN.Z:0.2
;PRINT.SIZE.MAX.X:181.724
;PRINT.SIZE.MAX.Y:131.002
;PRINT.SIZE.MAX.Z:2.2
;END_OF_HEADER
;Generated with Cura_SteamEngine 5.0.0
T0
M82 ;absolute extrusion mode

G92 E0
M109 S200
G280 S1
G0 Z20.001
G1 F2700 E-6.5
;LAYER_COUNT:4
;LAYER:0
M107
M204 S429
M205 X20 Y20
G1 F600 Z2.2
G0 F1285.7 X180.639 Y127.319 Z2.2
G0 X176.822 Y130.532
M204 S1000
;TYPE:SKIRT
G1 F600 Z0.2
G1 F2700 E0
G1 F600 X176.113 Y130.764 E0.01123
G1 X175.384 Y130.918 E0.02244
G1 X174.308 Y131.002 E0.03868
G1 X155.666 Y131.002 E0.31921
G1 X154.921 Y130.962 E0.33044
G1 X154.185 Y130.843 E0.34166
G1 X153.466 Y130.645 E0.35288
G1 X152.772 Y130.372 E0.3641
G1 X152.054 Y129.991 E0.37634
G1 X151.242 Y129.452 E0.391
G1 X150.564 Y128.86 E0.40455
G1 X149.907 Y128.151 E0.41909
G1 X149.469 Y127.547 E0.43032
G1 X149.08 Y126.864 E0.44215
G1 X148.706 Y126.022 E0.45601
G1 X148.486 Y125.309 E0.46724
G1 X148.343 Y124.577 E0.47847
G1 X148.275 Y123.61 E0.49305
G1 X148.275 Y116.609 E0.59841
G1 X148.315 Y115.864 E0.60964
G1 X148.434 Y115.128 E0.62086
G1 X148.632 Y114.409 E0.63208
G1 X148.905 Y113.715 E0.6433
G1 X149.418 Y112.788 E0.65924
G1 X149.957 Y112.001 E0.6736
G1 X150.445 Y111.437 E0.68482
G1 X150.991 Y110.929 E0.69604
G1 X151.589 Y110.482 E0.70728
G1 X152.23 Y110.102 E0.71849
G1 X152.893 Y109.781 E0.72958
G1 X153.591 Y109.518 E0.7408
G1 X154.313 Y109.332 E0.75202
G1 X155.051 Y109.223 E0.76325
G1 X155.689 Y109.194 E0.77286
G1 X157.932 Y109.193 E0.80661
G1 X158.636 Y109.099 E0.8173
G1 X159.338 Y109.056 E0.82789
G1 X160.267 Y109.04 E0.84187
G1 X161.023 Y109.035 E0.85324
G1 X161.902 Y109.075 E0.86649
G1 X162.478 Y109.136 E0.8752
G1 X162.754 Y109.179 E0.87941
G1 X163.877 Y109.076 E0.89638
G1 X164.811 Y109.039 E0.91044
G1 X165.846 Y109.043 E0.92602
G1 X166.833 Y109.078 E0.94088
G1 X167.43 Y109.052 E0.94987
G1 X168.176 Y109.041 E0.9611
G1 X168.769 Y109.04 E0.97002
G1 X169.581 Y109.055 E0.98224
G1 X170.327 Y109.04 E0.99347
G1 X171.235 Y109.115 E1.00718
G1 X171.718 Y109.193 E1.01455
G1 X174.335 Y109.194 E1.05393
G1 X175.08 Y109.234 E1.06515
G1 X175.816 Y109.354 E1.07638
G1 X176.536 Y109.552 E1.08761
G1 X177.435 Y109.923 E1.10225
G1 X178.319 Y110.408 E1.11742
G1 X178.925 Y110.843 E1.12865
G1 X179.481 Y111.341 E1.13988
G1 X179.98 Y111.895 E1.1511
G1 X180.487 Y112.61 E1.16429
G1 X181.02 Y113.536 E1.18037
G1 X181.311 Y114.223 E1.1916
G1 X181.526 Y114.937 E1.20282
G1 X181.664 Y115.67 E1.21404
G1 X181.724 Y116.586 E1.22786
G1 X181.724 Y123.587 E1.33321
G1 X181.684 Y124.332 E1.34444
G1 X181.565 Y125.068 E1.35566
G1 X181.367 Y125.787 E1.36688
G1 X181.094 Y126.481 E1.3781
G1 X180.639 Y127.319 E1.39245
G1 X180.051 Y128.17 E1.40802
G1 X179.555 Y128.728 E1.41925
G1 X179.003 Y129.229 E1.43047
G1 X178.518 Y129.594 E1.4396
G1 X177.503 Y130.226 E1.4576
G1 X176.822 Y130.532 E1.46883
M204 S429
G0 F1285.7 X174.308 Y130.522
M204 S1000
G1 F600 X155.666 Y130.522 E1.74937
G1 X154.947 Y130.482 E1.7602
G1 X154.238 Y130.363 E1.77102
G1 X153.546 Y130.165 E1.78185
G1 X152.88 Y129.892 E1.79268
G1 X152.303 Y129.581 E1.80255
G1 X151.514 Y129.055 E1.81682
G1 X150.903 Y128.52 E1.82904
G1 X150.264 Y127.829 E1.8432
G1 X149.845 Y127.244 E1.85403
G1 X149.51 Y126.65 E1.86429
G1 X149.148 Y125.832 E1.87775
G1 X148.939 Y125.143 E1.88859
G1 X148.808 Y124.435 E1.89942
G1 X148.755 Y123.61 E1.91186
G1 X148.755 Y116.609 E2.01722
G1 X148.795 Y115.89 E2.02806
G1 X148.914 Y115.181 E2.03887
G1 X149.112 Y114.489 E2.04971
G1 X149.385 Y113.823 E2.06054
G1 X149.819 Y113.052 E2.07385
G1 X150.351 Y112.275 E2.08802
G1 X150.826 Y111.734 E2.09886
G1 X151.358 Y111.249 E2.10969
G1 X151.94 Y110.826 E2.12052
G1 X152.565 Y110.47 E2.13134
G1 X153.155 Y110.191 E2.14116
G1 X153.832 Y109.946 E2.152
G1 X154.532 Y109.778 E2.16283
G1 X155.246 Y109.689 E2.17366
G1 X155.689 Y109.674 E2.18033
G1 X157.978 Y109.673 E2.21477
G1 X158.725 Y109.573 E2.22611
G1 X159.475 Y109.528 E2.23742
G1 X160.351 Y109.524 E2.2506
G1 X161.023 Y109.515 E2.26072
G1 X161.876 Y109.555 E2.27357
G1 X162.731 Y109.651 E2.28651
G1 X163.563 Y109.564 E2.2991
G1 X164.524 Y109.519 E2.31358
G1 X165.949 Y109.53 E2.33503
G1 X166.896 Y109.561 E2.34928
G1 X167.538 Y109.526 E2.35896
G1 X168.258 Y109.526 E2.36979
G1 X168.939 Y109.516 E2.38004
G1 X169.596 Y109.543 E2.38994
G1 X170.488 Y109.528 E2.40336
G1 X171.209 Y109.595 E2.41426
G1 X171.675 Y109.673 E2.42137
G1 X174.335 Y109.674 E2.4614
G1 X175.054 Y109.714 E2.47224
G1 X175.763 Y109.834 E2.48306
G1 X176.455 Y110.031 E2.49388
G1 X177.221 Y110.353 E2.50639
G1 X178.082 Y110.826 E2.52117
G1 X178.664 Y111.249 E2.532
G1 X179.195 Y111.735 E2.54283
G1 X179.67 Y112.276 E2.55367
G1 X180.079 Y112.862 E2.56442
G1 X180.6 Y113.769 E2.58016
G1 X180.876 Y114.434 E2.59099
G1 X181.077 Y115.125 E2.60182
G1 X181.2 Y115.834 E2.61265
G1 X181.244 Y116.586 E2.62399
G1 X181.244 Y123.587 E2.72934
G1 X181.204 Y124.306 E2.74018
G1 X181.085 Y125.015 E2.751
G1 X180.887 Y125.707 E2.76183
G1 X180.614 Y126.373 E2.77266
G1 X180.234 Y127.062 E2.7845
G1 X179.66 Y127.891 E2.79967
G1 X179.178 Y128.426 E2.81051
G1 X178.419 Y129.073 E2.82552
G1 X177.999 Y129.37 E2.83326
G1 X177.26 Y129.811 E2.84621
G1 X176.602 Y130.102 E2.85704
G1 X175.916 Y130.319 E2.86787
G1 X175.21 Y130.459 E2.8787
G1 X174.308 Y130.522 E2.8923
M204 S429
G0 F1285.7 X174.308 Y130.042
M204 S1000
G1 F600 X155.666 Y130.042 E3.17284
G1 X154.975 Y130.002 E3.18325
G1 X154.292 Y129.883 E3.19369
G1 X153.629 Y129.685 E3.2041
G1 X152.992 Y129.413 E3.21452
G1 X152.552 Y129.171 E3.22208
G1 X151.786 Y128.659 E3.23594
G1 X151.241 Y128.179 E3.24687
G1 X150.622 Y127.508 E3.26061
G1 X150.222 Y126.942 E3.27104
G1 X149.94 Y126.437 E3.27974
G1 X149.59 Y125.643 E3.2928
G1 X149.393 Y124.979 E3.30322
G1 X149.274 Y124.296 E3.31366
G1 X149.235 Y123.61 E3.324
G1 X149.235 Y116.609 E3.42935
G1 X149.275 Y115.918 E3.43977
G1 X149.394 Y115.235 E3.4502
G1 X149.592 Y114.572 E3.46061
G1 X149.864 Y113.935 E3.47104
G1 X150.22 Y113.315 E3.48179
G1 X150.746 Y112.551 E3.49575
G1 X151.206 Y112.033 E3.50618
G1 X151.722 Y111.572 E3.51659
G1 X152.288 Y111.173 E3.52701
G1 X152.791 Y110.901 E3.53562
G1 X153.416 Y110.602 E3.54604
G1 X154.07 Y110.377 E3.55645
G1 X154.747 Y110.229 E3.56688
G1 X155.689 Y110.154 E3.5811
G1 X158.037 Y110.153 E3.61643
G1 X158.812 Y110.048 E3.6282
G1 X159.608 Y110.001 E3.6402
G1 X160.431 Y110.01 E3.65259
G1 X161.023 Y109.995 E3.6615
G1 X161.848 Y110.035 E3.67393
G1 X162.76 Y110.15 E3.68776
G1 X163.287 Y110.066 E3.69579
G1 X164.015 Y110.04 E3.70675
G1 X164.67 Y109.996 E3.71663
G1 X165.261 Y110.005 E3.72553
G1 X166.047 Y110.019 E3.73736
G1 X166.956 Y110.044 E3.75104
G1 X167.644 Y110.002 E3.76141
G1 X168.336 Y110.012 E3.77183
G1 X169.104 Y109.995 E3.78339
G1 X169.95 Y109.998 E3.79612
G1 X170.642 Y110.021 E3.80654
G1 X171.181 Y110.075 E3.81469
G1 X171.629 Y110.153 E3.82153
G1 X174.335 Y110.154 E3.86226
G1 X175.026 Y110.194 E3.87267
G1 X175.708 Y110.314 E3.88309
G1 X176.372 Y110.511 E3.89351
G1 X177.007 Y110.783 E3.90391
G1 X177.843 Y111.244 E3.91828
G1 X178.401 Y111.655 E3.92871
G1 X178.907 Y112.127 E3.93912
G1 X179.356 Y112.655 E3.94955
G1 X179.671 Y113.115 E3.95794
G1 X180.179 Y114.001 E3.97331
G1 X180.441 Y114.643 E3.98374
G1 X180.627 Y115.31 E3.99416
G1 X180.735 Y115.994 E4.00458
G1 X180.764 Y116.586 E4.0135
G1 X180.764 Y123.587 E4.11886
G1 X180.724 Y124.278 E4.12927
G1 X180.605 Y124.961 E4.13971
G1 X180.407 Y125.624 E4.15012
G1 X180.135 Y126.261 E4.16054
G1 X179.829 Y126.804 E4.16992
G1 X179.269 Y127.61 E4.18469
G1 X178.803 Y128.122 E4.19511
G1 X178.136 Y128.685 E4.20824
G1 X177.617 Y129.047 E4.21777
G1 X177.018 Y129.395 E4.22819
G1 X176.383 Y129.672 E4.23862
G1 X175.72 Y129.873 E4.24904
G1 X175.039 Y129.997 E4.25946
G1 X174.308 Y130.042 E4.27048
M204 S429
G0 F1285.7 X174.308 Y129.562
M204 S1000
G1 F600 X155.666 Y129.562 E4.55101
G1 X155.003 Y129.522 E4.56101
G1 X154.35 Y129.403 E4.571
G1 X153.715 Y129.206 E4.581
G1 X153.109 Y128.934 E4.591
G1 X152.605 Y128.641 E4.59977
G1 X152.059 Y128.263 E4.60976
G1 X151.579 Y127.839 E4.6194
G1 X150.98 Y127.187 E4.63272
G1 X150.601 Y126.642 E4.64271
G1 X150.291 Y126.066 E4.65256
G1 X150.032 Y125.454 E4.66256
G1 X149.848 Y124.816 E4.67255
G1 X149.743 Y124.16 E4.68255
G1 X149.715 Y123.61 E4.69083
G1 X149.715 Y116.609 E4.79619
G1 X149.755 Y115.946 E4.80618
G1 X149.874 Y115.293 E4.81617
G1 X150.071 Y114.658 E4.82618
G1 X150.343 Y114.052 E4.83617
G1 X150.621 Y113.579 E4.84443
G1 X151.139 Y112.827 E4.85817
G1 X151.584 Y112.334 E4.86817
G1 X152.085 Y111.898 E4.87816
G1 X152.634 Y111.525 E4.88815
G1 X153.673 Y111.016 E4.90556
G1 X154.305 Y110.811 E4.91556
G1 X154.957 Y110.683 E4.92556
G1 X155.689 Y110.634 E4.9366
G1 X158.098 Y110.633 E4.97285
G1 X158.897 Y110.524 E4.98498
G1 X159.737 Y110.477 E4.99764
G1 X160.533 Y110.502 E5.00963
G1 X161.157 Y110.475 E5.01903
G1 X161.82 Y110.515 E5.02902
G1 X162.541 Y110.593 E5.03993
G1 X162.772 Y110.64 E5.04348
G1 X163.714 Y110.519 E5.05777
G1 X164.81 Y110.477 E5.07428
G1 X165.33 Y110.485 E5.08211
G1 X166.139 Y110.511 E5.09429
G1 X167.013 Y110.528 E5.10744
G1 X167.746 Y110.478 E5.1185
G1 X168.409 Y110.499 E5.12848
G1 X169.261 Y110.479 E5.1413
G1 X170.124 Y110.476 E5.15429
G1 X170.787 Y110.519 E5.16429
G1 X171.582 Y110.633 E5.17638
G1 X174.335 Y110.634 E5.2178
G1 X174.998 Y110.674 E5.2278
G1 X175.651 Y110.794 E5.23779
G1 X176.285 Y110.991 E5.24778
G1 X176.793 Y111.213 E5.25612
G1 X177.604 Y111.661 E5.27007
G1 X178.136 Y112.059 E5.28006
G1 X178.616 Y112.518 E5.29006
G1 X179.037 Y113.031 E5.30004
G1 X179.362 Y113.529 E5.30899
G1 X179.757 Y114.233 E5.32114
G1 X180.004 Y114.85 E5.33114
G1 X180.174 Y115.491 E5.34112
G1 X180.267 Y116.149 E5.35112
G1 X180.284 Y116.586 E5.3577
G1 X180.284 Y123.587 E5.46306
G1 X180.244 Y124.25 E5.47305
G1 X180.125 Y124.903 E5.48304
G1 X179.928 Y125.538 E5.49305
G1 X179.656 Y126.144 E5.50304
G1 X179.268 Y126.791 E5.5144
G1 X178.879 Y127.329 E5.52439
G1 X178.428 Y127.817 E5.53439
G1 X177.854 Y128.296 E5.54564
G1 X177.352 Y128.647 E5.55485
G1 X176.777 Y128.979 E5.56485
G1 X176.166 Y129.24 E5.57484
G1 X175.528 Y129.425 E5.58484
G1 X174.873 Y129.533 E5.59483
G1 X174.308 Y129.562 E5.60334
M204 S429
G0 F1285.7 X174.308 Y129.082
M204 S1000
G1 F600 X155.666 Y129.082 E5.88388
G1 X155.033 Y129.042 E5.89342
G1 X154.409 Y128.923 E5.90298
G1 X153.806 Y128.726 E5.91253
G1 X153.05 Y128.35 E5.92523
G1 X152.334 Y127.868 E5.93822
G1 X151.918 Y127.498 E5.9466
G1 X151.339 Y126.867 E5.95949
G1 X150.981 Y126.343 E5.96904
G1 X150.721 Y125.852 E5.9774
G1 X150.475 Y125.267 E5.98695
G1 X150.305 Y124.656 E5.99649
G1 X150.212 Y124.028 E6.00605
G1 X150.195 Y123.61 E6.01234
G1 X150.195 Y116.609 E6.11769
G1 X150.235 Y115.976 E6.12724
G1 X150.354 Y115.352 E6.1368
G1 X150.551 Y114.749 E6.14635
G1 X150.822 Y114.175 E6.1559
G1 X151.159 Y113.633 E6.1655
G1 X151.532 Y113.105 E6.17523
G1 X151.961 Y112.637 E6.18478
G1 X152.445 Y112.227 E6.19433
G1 X152.977 Y111.881 E6.20388
G1 X153.928 Y111.433 E6.2197
G1 X154.535 Y111.248 E6.22925
G1 X155.161 Y111.142 E6.2388
G1 X155.689 Y111.114 E6.24676
G1 X158.158 Y111.113 E6.28391
G1 X158.98 Y111.001 E6.2964
G1 X159.942 Y110.957 E6.31089
G1 X160.596 Y110.991 E6.32074
G1 X161.157 Y110.955 E6.3292
G1 X161.79 Y110.995 E6.33875
G1 X162.785 Y111.122 E6.35384
G1 X163.49 Y111.012 E6.36458
G1 X164.109 Y111.002 E6.3739
G1 X164.768 Y110.964 E6.38383
G1 X165.313 Y110.969 E6.39203
G1 X166.224 Y111.006 E6.40575
G1 X167.066 Y111.013 E6.41842
G1 X167.844 Y110.956 E6.43016
G1 X168.504 Y110.994 E6.44011
G1 X169.411 Y110.969 E6.45377
G1 X170.292 Y110.96 E6.46702
G1 X170.88 Y111.02 E6.47592
G1 X171.533 Y111.113 E6.48584
G1 X174.335 Y111.114 E6.52801
G1 X174.968 Y111.154 E6.53755
G1 X175.591 Y111.274 E6.5471
G1 X176.195 Y111.47 E6.55666
G1 X176.814 Y111.759 E6.56694
G1 X177.363 Y112.077 E6.57649
G1 X177.868 Y112.462 E6.58604
G1 X178.321 Y112.907 E6.5956
G1 X178.854 Y113.62 E6.60899
G1 X179.335 Y114.463 E6.6236
G1 X179.566 Y115.054 E6.63315
G1 X179.72 Y115.67 E6.6427
G1 X179.804 Y116.586 E6.65655
G1 X179.804 Y123.587 E6.7619
G1 X179.764 Y124.22 E6.77144
G1 X179.645 Y124.844 E6.781
G1 X179.448 Y125.447 E6.79055
G1 X179.018 Y126.289 E6.80478
G1 X178.49 Y127.047 E6.81868
G1 X178.055 Y127.509 E6.82823
G1 X177.572 Y127.908 E6.83766
G1 X177.087 Y128.246 E6.84655
G1 X176.537 Y128.562 E6.8561
G1 X175.951 Y128.807 E6.86566
G1 X175.339 Y128.975 E6.87521
G1 X174.711 Y129.066 E6.88475
G1 X174.308 Y129.082 E6.89082
M204 S429
G0 F1285.7 X174.308 Y128.602
M204 S1000
G1 F600 X155.666 Y128.602 E7.17136
G1 X155.064 Y128.562 E7.18044
G1 X154.472 Y128.443 E7.18952
G1 X153.901 Y128.247 E7.19861
G1 X153.299 Y127.94 E7.20878
G1 X152.609 Y127.474 E7.22131
G1 X152.099 Y127.002 E7.23176
G1 X151.7 Y126.549 E7.24085
G1 X151.229 Y125.796 E7.25421
G1 X150.919 Y125.082 E7.26593
G1 X150.762 Y124.499 E7.27501
G1 X150.675 Y123.61 E7.28845
G1 X150.675 Y116.609 E7.39381
G1 X150.715 Y116.007 E7.40289
G1 X150.834 Y115.415 E7.41198
G1 X151.03 Y114.844 E7.42106
G1 X151.424 Y114.106 E7.43365
G1 X151.924 Y113.383 E7.44688
G1 X152.336 Y112.942 E7.45596
G1 X152.803 Y112.56 E7.46504
G1 X153.317 Y112.242 E7.47413
G1 X154.179 Y111.852 E7.48837
G1 X154.76 Y111.69 E7.49745
G1 X155.358 Y111.606 E7.50654
G1 X155.69 Y111.594 E7.51154
G1 X158.213 Y111.593 E7.5495
G1 X159.059 Y111.478 E7.56235
G1 X160.038 Y111.436 E7.5771
G1 X161.023 Y111.435 E7.59192
G1 X161.759 Y111.475 E7.60301
G1 X162.411 Y111.544 E7.61288
G1 X162.769 Y111.619 E7.61838
G1 X163.308 Y111.513 E7.62665
G1 X163.911 Y111.476 E7.63574
G1 X164.466 Y111.443 E7.64411
G1 X164.977 Y111.435 E7.6518
G1 X165.702 Y111.439 E7.66271
G1 X166.273 Y111.501 E7.67135
G1 X166.931 Y111.493 E7.68125
G1 X167.938 Y111.436 E7.69643
G1 X168.48 Y111.477 E7.70461
G1 X169.552 Y111.464 E7.72074
G1 X170.45 Y111.45 E7.73426
G1 X171.092 Y111.515 E7.74397
G1 X171.481 Y111.593 E7.74994
G1 X174.334 Y111.594 E7.79287
G1 X174.937 Y111.634 E7.80197
G1 X175.529 Y111.754 E7.81106
G1 X176.365 Y112.072 E7.82452
G1 X177.122 Y112.493 E7.83755
G1 X177.598 Y112.864 E7.84663
G1 X178.022 Y113.294 E7.85572
G1 X178.446 Y113.872 E7.86651
G1 X178.912 Y114.692 E7.8807
G1 X179.126 Y115.256 E7.88978
G1 X179.263 Y115.844 E7.89886
G1 X179.324 Y116.586 E7.91007
G1 X179.324 Y123.587 E8.01542
G1 X179.284 Y124.189 E8.0245
G1 X179.165 Y124.781 E8.03359
G1 X178.969 Y125.352 E8.04267
G1 X178.613 Y126.032 E8.05422
G1 X178.101 Y126.763 E8.06765
G1 X177.683 Y127.199 E8.07674
G1 X177.29 Y127.52 E8.08438
G1 X176.823 Y127.846 E8.09295
G1 X176.298 Y128.145 E8.10204
G1 X175.739 Y128.372 E8.11112
G1 X175.154 Y128.523 E8.12021
G1 X174.308 Y128.602 E8.133
M204 S429
G0 F1285.7 X174.308 Y128.122
M204 S1000
G1 F600 X155.666 Y128.122 E8.41353
G1 X155.096 Y128.082 E8.42213
G1 X154.538 Y127.963 E8.43072
G1 X154.002 Y127.767 E8.43931
G1 X153.549 Y127.53 E8.447
G1 X152.886 Y127.081 E8.45905
G1 X152.437 Y126.661 E8.4683
G1 X152.061 Y126.231 E8.4769
G1 X151.659 Y125.582 E8.48838
G1 X151.363 Y124.897 E8.49961
G1 X151.222 Y124.344 E8.5082
G1 X151.155 Y123.61 E8.51929
G1 X151.155 Y116.609 E8.62465
G1 X151.195 Y116.039 E8.63325
G1 X151.314 Y115.481 E8.64183
G1 X151.51 Y114.945 E8.65042
